icons/trademark-fill.svg

<svg xmlns="http://www.w3.org/2000/svg" viewBox="0 0 24 24">
    <g>
        <path fill="none" d="M0 0h24v24H0z"/>
        <path d="M10 6v2H6v10H4V8H0V6h10zm2 0h2.5l3 5.196L20.5 6H23v12h-2V9.133l-3.5 6.063L14 9.135V18h-2V6z"/>
    </g>
</svg>

<svg viewBox="0 0 24 24" fill="currentColor" xmlns="http://www.w3.org/2000/svg">
    <path d="M10 6V8H6V18H4V8H0V6H10ZM12 6H14.5L17.4999 11.196L20.5 6H23V18H21V9.133L17.4999 15.196L14 9.135V18H12V6Z"/>
</svg>
